!!!SOCIAL_FUNCTION:	unclassified songs
!!!PDT:	1909
!!!OTL: No_198_Dream_Song.krn
!!!REG: Great_Lakes
!!!LANG: Non-Tone
!!!LING_GROUP: Algonquin
**kern
*staff1
*clefF4
*k[b-]
*M2/4
8.c\L
16c\Jk
=1
4c\
4c\
=2
4A\
8.A\L
16A\Jk
=3
4c\
12c\L
12A\
12G\J
=4
8.F\L
16F\Jk
[4F\
=5
4F;\]
8.A\L
16A\Jk
=6
4c\
12c\L
12A\
12G\J
=7
8.F\L
16F\Jk
8.F\L
16A\Jk
=8
4F\
8.F\L
16D\Jk
=9
4F\
8.F\L
16A\Jk
=10
4F\
8.F\L
16D\Jk
=11
4C/
8.C/L
16F/Jk
=12
4C/
8.C/L
16AA/Jk
=13
4C/
8.C/L
16C/Jk
=14
4C/
16C/LK
8.AA/J
=15
8.FF/L
16FF/Jk
4FF/
=16
2FF/
=17
4r
8.A\L
16A\Jk
=18
4c\
(12c\L
12A\)
12c\J
=19
4F\
8.F\L
16B-\Jk
=20
4F\
(12F\L
12D\)
12D\J
=21
4F\
(12A\L
12F\)
12A\J
=22
4F\
(12F\L
12D\)
12D\J
=23
4C/
8.C/L
16F/Jk
=24
4C/
8.C/L
16AA/Jk
=25
4C/
8.C/L
16C/Jk
=26
4C/
(16C/LK
8.AA/J)
=27
8.FF/L
16FF/Jk
[4FF/
=28
4FF/_
4FF/]
=29
4FF/
8.c\L
16c\Jk
=30
4c\
4c\
=31
4A\
8.A\L
16A\Jk
=32
4c\
12c\L
12A\
12G\J
=33
8.F\L
16F\Jk
[4F\
=34
4F;\]
8.A\L
16A\Jk
=35
4c\
12c\L
12A\
12G\J
=36
8.F\L
16F\Jk
8.F\L
16A\Jk
=37
4F\
8.F\L
16D\Jk
=38
4F\
8.F\L
16A\Jk
=39
4F\
8.F\L
16D\Jk
=40
4C/
8.C/L
16F/Jk
=41
4C/
8.C/L
16AA/Jk
=42
4C/
8.C/L
16C/Jk
=43
4C/
16C/LK
8.AA/J
=44
8.FF/L
16FF/Jk
[4FF/
=45
2FF/]
==
*-
